X:10
T:Down on yon Bank
M:C|
L:1/8
K:EDor
B|AFTF>E TF>EFB      |AFTF>D TE>DEB|AFTE>D d>efe|d>B A/B/A/F/ TE>DE:|
B|AFdF    d/c/B/A/ dF|AFdA   TB>ABd|AFTE>D d>efe|d>B A/B/A/F/ TE>DE:|

% @@@@@@@@@@@@@@@@@@@@@@@@@@@@@@@@@@

%% 11. ===============================================================================

% =================
% @THE HOLLY BUSH.@
% =================
%
% *FIRST Man sett to the Man on the side, the Woman the same to the Woman on the side
% at the same time; turn your Partner, and sett to the Woman on the side, and the Woman
% to the Man on the side at the same time, then turn your Partner to her place.  *Cross
% over, figure in, lead down, and cast up, lead up, cast off, and go Right and Left.
% *THE Man runs the figure 8 with the 2d Couple, and the Woman with the first Couple at
% the same time; change pairs, and figure as before.  *Sett cross Partners, & lead out
% at the sides.

% @@@@@@@@@@@@@@@@@@@@@@@@@@@@@@@@@@

